X: 5
T: Shoe The Donkey
R: mazurka
M: 3/4
L: 1/8
K: Dmaj
|: A>G |F2 D2 A>G | F2 D2 F>G | A2 d2 F2 | E2- E>F G>F |
E2 EF G>F | E2 E>D E>F | G2 B2 A2 | D4 :|
|: F>G |A2 d2 F2 | E2- E>D E>F | G2 B2 A2 | F4 F>F |
F2 E2 E>F | F2 E2 E>F | G2 B2 A2 | D4 :|


Tune 2320	Setting 15694

